X:1
T:Son namorato
T:Son namorato
T:Colanardo de Monte
T:Source : Primo libro delle villanelle a 3 voci---Venetia---Figlio d'A.Gardano---1574. Editor : André Vierendeels (01/04/16).
T:Notes: Original clefs : C1, C2, C4 Editorial accidentals above the staff "Alla napolitana" Dotted brackets indicate black notes Music by composers from Bari, collected by G.de Antiquis 
T:©
T:©
T:©
C:Colanardo de Monte
Z:©
%%score [ 1 [ 2 3 ] ]
L:1/8
Q:1/4=86
M:4/4
K:C
V:1 treble nm="Soprano" snm="S"
V:2 treble-8 nm="Tenor 1" snm="T 1"
V:3 treble-8 nm="Tenor 2" snm="T 2"
V:1
 G8 | A3 G F2 F2 | G3 F E2 D2 | E4 D4 ::[M:3/4] AA A2 B2 |[M:4/4] c2 d2 B4 | A4 z2 A2- | %7
w: Son|na- mo- ra- to'e|sen- to- mi mo-|ri- re,|d'u- na don- na|bru- ne- tel-|la, gra-|
w: S'io|l'a- mo tan- to|quan- to si puo'a-|ma- re,|per- ch'e tan- to|sa- po- ri-|ta, che|
 A2 G2 F3 E | F2 G2 (3:2:2E4 F2 |[M:3/4] F2 F2 F2 | E4 E2 | A3 A A2 | G4 G2 | c3 c c2 | B4 B2 | %15
w: * ti- o- s'e|sde- gno- sel- la,|sem- pre mi|di- ce|la- scia- mi|sta- re|non mi par-|la- re,|
w: _ mi da mor-|te e vi- ta:|sem- pre le|di- co:|ca- ro mio|be- ne,|con- tan- to|be- ne,|
[M:4/4] d4 B2 c2 | A4 G2 D2 | E2 F2 G3 G | C2 F2 E2 D2 | E4 D2 G2- | GFDE F2 E2 | D4 z2 A2 | %22
w: non mi par-|la- re, e|mi fa nott' e|gior- no so- spi-|ra- re, so-|* * * * spi- ra-|re, e|
w: con- tan- te|be- ne, con-|ten- ta- mi sto|co- re'a- ma- re|me- ne, me-||ne, con-|
 B4 c4 | d3 d G2 c2 | B2 A2 _BAGF | E2 D2 E4 |[M:2/4] D4 :| %27
w: mi fa|nott' e gior- no|so- spi- ra- * * *||re.|
w: ten- ta-|mi sto co- re'a-|ma- re me- * * *||ne.|
V:2
 d4 e3 d | c2 c2 d2 d2 |"^b""^b" B2 B2 c2 d2- | d2 ^c2 d4 ::[M:3/4] ff f2 g2 | %5
w: Son na- mo-|ra- to'e sen- to-|mi mo- ri- *|* * re,|d'u- na don- na|
w: S'io l'a- mo|tan- to quan- to|si puo'a- ma- *|* * re,|per- ch'e tan- to|
[M:4/4]"^#" a2 a4 g2 | a4 z2 f2- | f2 d2 d3 c |"^b" d2 B2 (3:2:2c4 c2 |[M:3/4] d2 d2 d2 | c4 c2 | %11
w: bru- ne- tel-|la, gra-|* ti- o- s'e|sde- gno- sel- la|sem- pre mi|di- ce|
w: sa- po- ri-|ta, che|_ mi da mor-|te e vi- ta:|sem- pre le|di- co:|
 f3 f f2 | e4 e2 | a3 a a2 | g4 g2 |[M:4/4] f4 g2 g2- |"^#" g2 f2 g4 | c2 d2 B4 | z2 A2 B4 | %19
w: la- scia- mi|sta- re|non mi par-|la- re,|non mi par-|* la- re,|e mi fa|nott' e|
w: ca- ro mio|be- ne,|con tan- to|be- ne,|con- tan- te|_ be- ne,|con- tan- te|co- re|
 c4 d3 d | G4 A4 | z2 d2 e2 f2 | g3 g e4 | d4 e2 g2- | g2 f2 gfed | c2 d4 ^c2 |[M:2/4] d4 :| %27
w: gior- no so-|spi- rar'|e mi fa|nott' e gior-|no so- spi-|* ra- * * * *||re.|
w: a- ma- re|me- ne,|ten- ta- mi|sto co- re'a-|ma- re me-|||ne.|
V:3
 G4 c3 B |"^b" AGFE D2 B2 |"^b" G2 G2 A2 B2 | A4 D4 ::[M:3/4] dd d2 e2 |[M:4/4] f2 d2 e4 | %6
w: Son na- mo-|ra- * * * * to'e|sen- to- mi mo-|ri- re,|d'u- na don- na|bru- ne- tel-|
w: S'io l'a- mo|tan- * * * * to|si puo'a- ma- *|* re,|per- ch'e tan- to|sa- po- ri-|
 A4 z2 d2- | d2 G2 _B3 A |"^b" B2 G2 (3:2:2A4 A2 |[M:3/4] D2 D2 D2 | A4 A2 | F2 F2 F2 | c4 c2 | %13
w: la, gra-|* ti- o s'e|sde- gno- sel- la,|sem- pre mi|di- ce|la scia- mi|sta- re|
w: ta, che|_ mi da mor-|te e vi- ta:|sem- pre le|di- co:|ca- ro mio|be- ne,|
 A3 A A2 | e4 e2 |[M:4/4] d4 e2 c2 | d4 G4 | z2 D2 E4 | F4 G3 G | C2 c2 B3 A | Bc d4 c2- | %21
w: non mi par-|la- re,|non mi par-|la- re,|e mi|fa nott' e|gior- no so- spi-|ra- * * *|
w: con tan- to|be- ne,|con- tan- te|be- ne,|con- tan-|te co- re|a- ma- re me-||
 c2 B2 c2 A2 | G4 z2 A2 | B4 c4 | d3 d G2 G2 |"^b" A2 B2 A4 |[M:2/4] D4 :| %27
w: |re, e|mi fa|nott' e gior- no|so- spi- ra-|re.|
w: |ne, con-|ten- ta-|mi sto co- re'a-|ma- re me-|ne.|

